app/images/icons/feather.svg

<svg width="50px" height="50px" viewBox="0 0 24 24" fill="none" xmlns="http://www.w3.org/2000/svg" aria-labelledby="featherIconTitle" stroke="#2329D6" stroke-width="1" stroke-linecap="square" stroke-linejoin="miter" color="#2329D6"> <title id="featherIconTitle">Feather</title> <path d="M5.12634 17C5.04271 17.6571 5 18.325 5 19V21M5.12634 17C6.03384 9.86861 11.7594 4 20 4L19 8H16L17 10L15 12H11L13 14L12 16H8L5.12634 17Z"/> </svg>

<svg xmlns="http://www.w3.org/2000/svg" width="50px" height="50px" fill="none" stroke="#2329D6" stroke-linecap="square" aria-labelledby="featherIconTitle" color="#2329D6" viewBox="0 0 24 24"><path d="M5.126 17A15.84 15.84 0 0 0 5 19v2m.126-4C6.034 9.869 11.76 4 20 4l-1 4h-3l1 2-2 2h-4l2 2-1 2H8l-2.874 1z"/></svg>
